X: 1316
T: The Reel of Mullinavat
R:Reel
N:Collected by Kennedy
B:O'Neill's 1316
Z:Transcribed by Trish O'Neil
M:C|
L:1/8
K:Em
(ef)|gfed BAGF|GBAFE3F|1GBAF GAB^c|dB{c}BA Beef:|2GBAF GATBA|Bee^de2||
(ef)|:gfef gebe|gebe af^df|1gfef gebe|af^de feef:|2gebeg2fg|af^dfe2|]


